src/svgs/thembi-correct.svg

<svg class="thembi-success" width="246" height="378" fill="none" xmlns="http://www.w3.org/2000/svg"><path fill="#5E3E3E" d="M105 214h36v23h-36z"/><path d="M6 272c0-19.33 15.67-35 35-35h164c19.33 0 35 15.67 35 35v42H6v-42Z" fill="#2B4570"/><path fill="#2B4570" d="M6 285h234v90H6z"/><path d="M157.441 330.001c0-19.021-15.42-34.44-34.44-34.44-19.021 0-34.44 15.419-34.44 34.44 0 19.02 15.419 34.44 34.44 34.44 19.02 0 34.44-15.42 34.44-34.44Z" stroke="#2B4570"/><path d="m106.922 332.525-.007-.003-.007-.003c-3.878-1.574-6.463-3.171-7.846-4.763-1.35-1.579-2.037-3.551-2.037-5.954 0-3.013 1.074-5.469 3.226-7.409v-.001c2.172-1.961 5.06-2.965 8.72-2.965 3.871 0 6.906.998 9.166 2.941 2.12 1.823 3.25 4.231 3.372 7.275h-8.348c-.07-1.282-.393-2.34-1.034-3.109-.748-.898-1.847-1.305-3.189-1.305-1.13 0-2.1.356-2.864 1.093-.781.754-1.141 1.784-1.141 3.012 0 .993.451 1.852 1.262 2.561l.004.004.003.003c.407.343 1.053.734 1.902 1.173a51.97 51.97 0 0 0 3.288 1.522l.013.005.014.005c3.826 1.416 6.444 2.971 7.937 4.631l.005.006c1.493 1.617 2.259 3.736 2.259 6.409 0 3.07-1.143 5.504-3.437 7.355-2.306 1.863-5.359 2.819-9.212 2.819-2.579 0-4.83-.498-6.767-1.477-1.942-1.003-3.458-2.384-4.561-4.144-.983-1.6-1.517-3.308-1.608-5.13h7.889c.11 1.465.504 2.66 1.246 3.518l.003.003.003.003c.885.993 2.266 1.425 3.996 1.425 1.344 0 2.456-.303 3.234-1.006.79-.713 1.138-1.749 1.138-2.999 0-1.007-.496-1.884-1.359-2.626-.84-.762-2.629-1.718-5.263-2.869ZM137.354 332.525l.007-.003.007-.003c3.878-1.574 6.462-3.171 7.845-4.763 1.35-1.579 2.038-3.551 2.038-5.954 0-3.013-1.074-5.469-3.226-7.409v-.001c-2.172-1.961-5.06-2.965-8.721-2.965-3.87 0-6.906.998-9.165 2.941-2.121 1.823-3.25 4.231-3.372 7.275h8.347c.071-1.282.394-2.34 1.035-3.109.748-.898 1.847-1.305 3.189-1.305 1.13 0 2.1.356 2.863 1.093.781.754 1.141 1.784 1.141 3.012 0 .993-.451 1.852-1.261 2.561l-.004.004-.004.003c-.407.343-1.052.734-1.901 1.173-.858.443-1.956.951-3.289 1.522l-.013.005-.013.005c-3.826 1.416-6.445 2.971-7.937 4.631l-.006.006c-1.493 1.617-2.259 3.736-2.259 6.409 0 3.07 1.144 5.504 3.437 7.355 2.307 1.863 5.36 2.819 9.212 2.819 2.579 0 4.83-.498 6.768-1.477 1.942-1.003 3.458-2.384 4.561-4.144.982-1.6 1.517-3.308 1.607-5.13h-7.889c-.109 1.465-.504 2.66-1.246 3.518l-.003.003-.002.003c-.886.993-2.266 1.425-3.996 1.425-1.344 0-2.457-.303-3.235-1.006-.789-.713-1.138-1.749-1.138-2.999 0-1.007.497-1.884 1.36-2.626.839-.762 2.628-1.718 5.263-2.869Z" stroke="#2B4570"/><path d="M44.754 335.376h164.099v16.311a5 5 0 0 1-5 5h-154.1a5 5 0 0 1-5-5v-16.311Z" fill="#FF8600"/><path d="M45 254a5 5 0 0 1 5-5h154a5 5 0 0 1 5 5v82H45v-82Z" fill="#fff"/><path d="M89 287.39a28.388 28.388 0 0 1 19.733-27.038A28.39 28.39 0 0 1 140.5 270.9a28.383 28.383 0 0 0-22.106 16.922 28.374 28.374 0 0 0 2.996 27.678c-1.325.193-2.661.29-4 .29A28.402 28.402 0 0 1 89 287.39Z" fill="#00ACD4"/><path d="M117.39 259H89v28.39L117.39 259Z" fill="#00ACD4"/><path d="M116.1 299a28.378 28.378 0 0 1 24.4-28.1 28.389 28.389 0 0 1 2.996 27.678A28.387 28.387 0 0 1 121.39 315.5a28.216 28.216 0 0 1-5.29-16.5Z" fill="#1E425C"/><path d="M145.76 287.39a28.21 28.21 0 0 0-5.28-16.49 28.391 28.391 0 1 1 6.034 56.427A28.392 28.392 0 0 1 121.36 315.5a28.376 28.376 0 0 0 24.4-28.11Z" fill="#FF8600"/><path d="M142.15 327.4h30.37v-30.37l-30.37 30.37Z" fill="#FF8600"/><rect y="356.688" width="245.082" height="21.311" rx="3" fill="#A56060"/><g class="thembi-success__head"><rect x="22" width="200" height="200" rx="55" fill="#282222"/><rect x="173.667" y="133.334" width="21.667" height="21.667" rx="3" fill="#5E3E3E"/><rect x="48.667" y="133.334" width="21.667" height="21.667" rx="3" fill="#5E3E3E"/><rect x="60.334" y="81.667" width="123.967" height="150" rx="50" fill="#795252"/><path d="M61 97c0-8.284 6.716-15 15-15h94c8.284 0 15 6.716 15 15v24H61V97Z" fill="#FF8600"/><path fill="#5E3E3E" d="M118.667 156.667h6.667v21.667h-6.667zM103 200.001c0 5.523 4.477 10 10 10h17c5.523 0 10-4.477 10-10v-5h-37v5Z"/><path d="M103 195a5 5 0 0 1 5-5h27a5 5 0 0 1 5 5c0 .69-.56 1.25-1.25 1.25h-34.5c-.69 0-1.25-.56-1.25-1.25Z" fill="#5E3E3E"/><path d="M103 195.002a8.75 8.75 0 0 0 8.75 8.75h19.5a8.75 8.75 0 0 0 8.75-8.75h-37Z" fill="#282222"/><path d="M112.071 144.702c0 8.488-6.881 15.369-15.369 15.369s-15.369-6.881-15.369-15.369 6.881-15.369 15.37-15.369c8.487 0 15.368 6.881 15.368 15.369Z" stroke="#000" stroke-width="2"/><circle cx="147.298" cy="144.702" r="15.369" stroke="#000" stroke-width="2"/><path stroke="#000" d="M113.071 144.202h17.857"/><path d="M107 144.815c0 2.107-4.701.763-10.5.763s-10.5 1.344-10.5-.763S90.701 141 96.5 141s10.5 1.708 10.5 3.815ZM157 144.815c0 2.107-4.701.763-10.5.763s-10.5 1.344-10.5-.763S140.701 141 146.5 141s10.5 1.708 10.5 3.815Z" fill="#271E1E"/></g></svg>

<svg class="thembi-success" width="246" height="378" viewBox="0 0 246 378" fill="none" xmlns="http://www.w3.org/2000/svg">
<rect x="105" y="214" width="36" height="23" fill="#5E3E3E"/>
<path d="M6 272C6 252.67 21.67 237 41 237H205C224.33 237 240 252.67 240 272V314H6V272Z" fill="#2B4570"/>
<rect x="6" y="285" width="234" height="90" fill="#2B4570"/>
<path d="M157.441 330.001C157.441 310.98 142.021 295.561 123.001 295.561C103.98 295.561 88.5605 310.98 88.5605 330.001C88.5605 349.021 103.98 364.441 123.001 364.441C142.021 364.441 157.441 349.021 157.441 330.001Z" stroke="#2B4570"/>
<path d="M106.922 332.525L106.915 332.522L106.908 332.519C103.03 330.945 100.445 329.348 99.0625 327.756C97.7123 326.177 97.0246 324.205 97.0246 321.802C97.0246 318.789 98.0988 316.333 100.251 314.393L100.251 314.392C102.423 312.431 105.311 311.427 108.971 311.427C112.842 311.427 115.877 312.425 118.137 314.368C120.257 316.191 121.387 318.599 121.509 321.643H113.161C113.091 320.361 112.768 319.303 112.127 318.534C111.379 317.636 110.28 317.229 108.938 317.229C107.808 317.229 106.838 317.585 106.074 318.322C105.293 319.076 104.933 320.106 104.933 321.334C104.933 322.327 105.384 323.186 106.195 323.895L106.199 323.899L106.202 323.902C106.609 324.245 107.255 324.636 108.104 325.075C108.962 325.518 110.059 326.026 111.392 326.597L111.405 326.602L111.419 326.607C115.245 328.023 117.863 329.578 119.356 331.238L119.361 331.244C120.854 332.861 121.62 334.98 121.62 337.653C121.62 340.723 120.477 343.157 118.183 345.008C115.877 346.871 112.824 347.827 108.971 347.827C106.392 347.827 104.141 347.329 102.204 346.35C100.262 345.347 98.7457 343.966 97.6427 342.206C96.6599 340.606 96.1255 338.898 96.0352 337.076H103.924C104.034 338.541 104.428 339.736 105.17 340.594L105.173 340.597L105.176 340.6C106.061 341.593 107.442 342.025 109.172 342.025C110.516 342.025 111.628 341.722 112.406 341.019C113.196 340.306 113.544 339.27 113.544 338.02C113.544 337.013 113.048 336.136 112.185 335.394C111.345 334.632 109.556 333.676 106.922 332.525Z" stroke="#2B4570"/>
<path d="M137.354 332.525L137.361 332.522L137.368 332.519C141.246 330.945 143.83 329.348 145.213 327.756C146.563 326.177 147.251 324.205 147.251 321.802C147.251 318.789 146.177 316.333 144.025 314.393L144.025 314.392C141.853 312.431 138.965 311.427 135.304 311.427C131.434 311.427 128.398 312.425 126.139 314.368C124.018 316.191 122.889 318.599 122.767 321.643H131.114C131.185 320.361 131.508 319.303 132.149 318.534C132.897 317.636 133.996 317.229 135.338 317.229C136.468 317.229 137.438 317.585 138.201 318.322C138.982 319.076 139.342 320.106 139.342 321.334C139.342 322.327 138.891 323.186 138.081 323.895L138.077 323.899L138.073 323.902C137.666 324.245 137.021 324.636 136.172 325.075C135.314 325.518 134.216 326.026 132.883 326.597L132.87 326.602L132.857 326.607C129.031 328.023 126.412 329.578 124.92 331.238L124.914 331.244C123.421 332.861 122.655 334.98 122.655 337.653C122.655 340.723 123.799 343.157 126.092 345.008C128.399 346.871 131.452 347.827 135.304 347.827C137.883 347.827 140.134 347.329 142.072 346.35C144.014 345.347 145.53 343.966 146.633 342.206C147.615 340.606 148.15 338.898 148.24 337.076H140.351C140.242 338.541 139.847 339.736 139.105 340.594L139.102 340.597L139.1 340.6C138.214 341.593 136.834 342.025 135.104 342.025C133.76 342.025 132.647 341.722 131.869 341.019C131.08 340.306 130.731 339.27 130.731 338.02C130.731 337.013 131.228 336.136 132.091 335.394C132.93 334.632 134.719 333.676 137.354 332.525Z" stroke="#2B4570"/>
<path d="M44.7539 335.376H208.853V351.687C208.853 354.449 206.614 356.687 203.853 356.687H49.7539C46.9925 356.687 44.7539 354.449 44.7539 351.687V335.376Z" fill="#FF8600"/>
<path d="M45 254C45 251.239 47.2386 249 50 249H204C206.761 249 209 251.239 209 254V336H45V254Z" fill="white"/>
<path d="M89 287.39C89 281.374 90.9112 275.513 94.4578 270.654C98.0044 265.794 103.003 262.187 108.733 260.352C114.462 258.518 120.627 258.551 126.336 260.446C132.046 262.342 137.006 266.003 140.5 270.9C135.672 271.584 131.101 273.5 127.229 276.464C123.357 279.428 120.314 283.34 118.394 287.822C116.473 292.304 115.74 297.206 116.265 302.054C116.79 306.902 118.555 311.533 121.39 315.5C120.065 315.693 118.729 315.79 117.39 315.79C109.86 315.787 102.639 312.794 97.3146 307.468C91.9908 302.143 89 294.92 89 287.39H89Z" fill="#00ACD4"/>
<path d="M117.39 259H89V287.39L117.39 259Z" fill="#00ACD4"/>
<path d="M116.1 299C116.1 292.163 118.568 285.555 123.051 280.393C127.534 275.23 133.73 271.859 140.5 270.9C143.335 274.868 145.1 279.499 145.625 284.347C146.149 289.195 145.416 294.096 143.496 298.578C141.575 303.06 138.532 306.972 134.66 309.936C130.788 312.9 126.218 314.817 121.39 315.5C117.94 310.691 116.089 304.919 116.1 299V299Z" fill="#1E425C"/>
<path d="M145.76 287.39C145.772 281.476 143.925 275.707 140.48 270.9C141.805 270.711 143.142 270.617 144.48 270.62C149.348 270.622 154.133 271.875 158.376 274.259C162.62 276.643 166.179 280.078 168.712 284.235C171.246 288.391 172.668 293.129 172.842 297.993C173.017 302.857 171.937 307.685 169.708 312.012C167.479 316.339 164.175 320.02 160.113 322.702C156.051 325.384 151.368 326.976 146.514 327.327C141.659 327.677 136.795 326.773 132.391 324.702C127.986 322.631 124.188 319.462 121.36 315.5C128.132 314.541 134.329 311.169 138.812 306.004C143.296 300.839 145.763 294.229 145.76 287.39V287.39Z" fill="#FF8600"/>
<path d="M142.15 327.4H172.52V297.03L142.15 327.4Z" fill="#FF8600"/>
<rect y="356.688" width="245.082" height="21.3115" rx="3" fill="#A56060"/>
<g class="thembi-success__head">
    <rect x="22" width="200" height="200" rx="55" fill="#282222"/>
    <rect x="173.667" y="133.334" width="21.6667" height="21.6667" rx="3" fill="#5E3E3E"/>
    <rect x="48.667" y="133.334" width="21.6667" height="21.6667" rx="3" fill="#5E3E3E"/>
    <rect x="60.334" y="81.667" width="123.967" height="150" rx="50" fill="#795252"/>
    <path d="M61 97C61 88.7157 67.7157 82 76 82H170C178.284 82 185 88.7157 185 97V121H61V97Z" fill="#FF8600"/>
    <rect x="118.667" y="156.667" width="6.66666" height="21.6667" fill="#5E3E3E"/>
    <path d="M103 200.001C103 205.524 107.477 210.001 113 210.001H130C135.523 210.001 140 205.524 140 200.001V195.001H103V200.001Z" fill="#5E3E3E"/>
    <path d="M103 195C103 192.239 105.239 190 108 190H135C137.761 190 140 192.239 140 195V195C140 195.69 139.44 196.25 138.75 196.25H104.25C103.56 196.25 103 195.69 103 195V195Z" fill="#5E3E3E"/>
    <path d="M103 195.002C103 199.834 106.918 203.752 111.75 203.752H131.25C136.082 203.752 140 199.834 140 195.002V195.002H103V195.002Z" fill="#282222"/>
    <path d="M112.071 144.702C112.071 153.19 105.19 160.071 96.7021 160.071C88.214 160.071 81.333 153.19 81.333 144.702C81.333 136.214 88.214 129.333 96.7021 129.333C105.19 129.333 112.071 136.214 112.071 144.702Z" stroke="black" stroke-width="2"/>
    <circle cx="147.298" cy="144.702" r="15.369" stroke="black" stroke-width="2"/>
    <line x1="113.071" y1="144.202" x2="130.928" y2="144.202" stroke="black"/>
    <path d="M107 144.815C107 146.922 102.299 145.578 96.5 145.578C90.701 145.578 86 146.922 86 144.815C86 142.708 90.701 141 96.5 141C102.299 141 107 142.708 107 144.815Z" fill="#271E1E"/>
    <path d="M157 144.815C157 146.922 152.299 145.578 146.5 145.578C140.701 145.578 136 146.922 136 144.815C136 142.708 140.701 141 146.5 141C152.299 141 157 142.708 157 144.815Z" fill="#271E1E"/>
</g>

</svg>
